X:1
T:Title
%%score { ( 1 4 6 ) | ( 2 3 5 ) }
L:1/8
M:4/8
K:G
V:1 treble nm="Grand Piano"
V:4 treble 
V:6 treble 
V:2 bass 
V:3 bass 
V:5 bass 
V:1
 z2 z[Q:1/4=72] D | DGGG | G/F/G/A/BB/c/ | dedB |[M:3/8] B/G/E/F/D |[M:1/8] D |[M:2/4] EE FF | %7
 G>A BD | E/A/B/c/ BA |[M:3/8] [CDA]2 [B,DG] |[M:1/8] z |[M:2/4] z [A,F]/G/ Ae | d4 | %13
 [GB]>e d[E^c] |[M:3/8] [Ge]2 [Fd] |[M:1/8] G |[M:2/4] z G z2 |[M:9/16] c3- c/ z/ z/ | %18
[M:2/4] z .d z2 |[M:3/8] [CDA]2 [B,DG] |] %20
V:2
 z2 z [G,B,] | [G,B,][G,B,D][G,B,D][G,B,D] | .B,.B, z [DG] | [B,DG][CG][B,DG][G,DG] | %4
[M:3/8][K:bass] [A,^CE][A,,A,][D,F,] |[M:1/8] [D,F,] |[M:2/4] [D,G,^C][D,G,C] [D,A,=C][D,A,C] | %7
 B,2 z2 | .C2 z2 |[M:3/8] D,E,/F,/G, |[M:1/8][K:treble] d |[M:2/4] d4[K:bass] | %12
 z [G,B,]/A,/[K:treble] [B,D][G,DG] | [E,E]>[G,B,G] [A,F][K:bass][A,,A,] |[M:3/8] [D,A,]2 [D,A,] | %15
[M:1/8] z |[M:2/4] z [G,B,]/A,/ .[B,D]2 |[M:9/16] z G,/-G,/ z/ z/ z3/2 | %18
[M:2/4] z/ D/B,/C/ [D,A,]D, |[M:3/8] G,,2 G,, |] %20
V:3
 x4 | x4 | [G,D]/-[G,A,D]/[G,D]/-[G,CD]/[G,D]G,/A,/ | x4 |[M:3/8][K:bass] x3 |[M:1/8] x | %6
[M:2/4] x4 | G,->[G,C] [G,D][G,B,] | [C,G,]/-[C,G,E]/[C,G,] [D,G,D][D,CD] |[M:3/8] x3 | %10
[M:1/8][K:treble] x |[M:2/4] z[K:bass] z/ B,/ .[D,C]2 | x2[K:treble] x2 | x3[K:bass] x | %14
[M:3/8] x3 |[M:1/8] x |[M:2/4] x4 |[M:9/16] z E,/D,/C,-C,/C, |[M:2/4] D,D, z2 |[M:3/8] x3 |] %20
V:4
 x4 | x4 | x4 | x4 |[M:3/8] z ^C z |[M:1/8] x |[M:2/4] x4 | x4 | z E z2 |[M:3/8] x3 |[M:1/8] x | %11
[M:2/4] x4 | z G z2 | x4 |[M:3/8] x3 |[M:1/8] x |[M:2/4] .G>C GB | %17
[M:9/16] z G/=F/[G,E]-[G,E]/[A,EA] |[M:2/4] [B,DG]/[GB]/G/-[Ge]/ [Fd][CDF] |[M:3/8] x3 |] %20
V:5
 x4 | x4 | x4 | x4 |[M:3/8][K:bass] x3 |[M:1/8] x |[M:2/4] x4 | x4 | x4 |[M:3/8] x3 | %10
[M:1/8][K:treble] x |[M:2/4] z[K:bass] D, z2 | x2[K:treble] x2 | x3[K:bass] x |[M:3/8] x3 | %15
[M:1/8] x |[M:2/4] x4 |[M:9/16] x9/2 |[M:2/4] x4 |[M:3/8] x3 |] %20
V:6
 x4 | x4 | x4 | x4 |[M:3/8] x3 |[M:1/8] x |[M:2/4] x4 | x4 | x4 |[M:3/8] x3 |[M:1/8] x | %11
[M:2/4] x4 | z z/ C/ GB | x4 |[M:3/8] x3 |[M:1/8] x |[M:2/4] x4 |[M:9/16] x9/2 |[M:2/4] x4 | %19
[M:3/8] x3 |] %20

